X:1
L:1/8
Q:1/2=84
M:3/2
K:G
|:""^A""""G"" B3 c (Bc) d2""D"" A2 d2 |""Em"" G3 A (GA) B2""Bm"" F2 B2 |""C"" E3 F (EF) G2""G"" D2 B2 | 
""Am"" G4-""D"" G2 F2""G"" G4 :|""^B""""Em"" g3 f (ef) g2""Am"" f2 e2 |""B7"" ^d3 e (de) f2 B2 f2 | 
""Em"" g3 f (ef) g2""Am"" f2 e2 |""B7"" e4- e2 ^d2""Em"" e4 |""C"" E3 F (EF) G2""D"" (FG) A2 | 
""Em"" G3 A (GA) B2""D"" (AB) c2 |""G"" B3 c (Bc) d2""Bm"" D2 d2 |""Em"" B4-""D7"" B2 (AB)""G"" G4 |]
